icons/portainer/portainer-original-wordmark.svg

<svg xmlns="http://www.w3.org/2000/svg" fill="#3BBCED" viewBox="0 0 128 128"><path d="M12.07 51.78h-.67v3.45h.67v-3.45zm2.86 0h-.67v3.45h.67v-3.45zm3.9-6.57-.68-1.18L6.78 50.6l.68 1.18 11.37-6.57z"/><path d="m18.77 45.21.68-1.18 11.37 6.57-.68 1.18-11.37-6.57z"/><path d="M32.83 51.8v-1.36H1.67v1.36h31.16zM58.84 58.44h-1.76v11.58h1.76v-6.41c0-2.36 1.86-3.63 3.92-3.63v-1.73c-1.6 0-2.98.68-3.92 1.76v-1.57zm11.34 1.6v-1.6h-2.61v-4.56H65.8v4.56h-1.73v1.6h1.73v9.99h1.76v-9.99h2.62zM88.43 56.1c.67 0 1.23-.55 1.23-1.27 0-.63-.58-1.21-1.23-1.21-.72 0-1.26.58-1.26 1.21 0 .72.55 1.27 1.26 1.27zm-.9 13.92h1.84V58.44h-1.84v11.58zm5.56 0h1.76v-6.16c0-2.61 1.45-3.93 3.79-3.88 1.93 0 2.98 1.13 2.98 3.43v6.61h1.76v-6.61c0-3.69-1.41-5.16-4.74-5.16-1.58 0-2.86.58-3.79 1.58v-1.4h-1.76v11.59zM122.4 58.44h-1.76v11.58h1.76v-6.41c0-2.36 1.86-3.63 3.92-3.63v-1.73c-1.61 0-2.98.68-3.92 1.76v-1.57zM10.97 56.76H7.44v3.54h3.53v-3.54zm-3.98 0H3.47v3.54H7v-3.54zm0 3.95H3.47v3.54H7v-3.54zm3.98 0H7.44v3.54h3.53v-3.54zm3.96 0H11.4v3.54h3.53v-3.54zm0-5.85H11.4v3.54h3.53v-3.54z"/><path d="M20.49 71.07V50.85h1.36v21.2c-.36-.41-.82-.71-1.36-.98zm-2.32-.35V42.2h1.36v28.69c-.38-.18-1.31-.17-1.36-.17zM5.25 73.57c-1.66-1.23-2.76-3.19-2.76-5.42 0-1.18.31-2.35.9-3.36h11.64c.6 1.02.9 2.18.9 3.36 0 1.03-.13 2-.55 2.86-.88-.85-2.18-1.21-3.49-1.21-2.33 0-4.32 1.45-4.84 3.61-.18-.02-.3-.03-.48-.03-.46.01-.89.07-1.32.19zm29.34-15.31c3.29 0 6 2.71 6 6.01 0 3.25-2.71 6.06-6 6.06-1.76 0-3.32-.83-4.37-2.13v7.1h-1.76V58.44h1.76v1.9c1.06-1.27 2.61-2.08 4.37-2.08zm.05 10.32c2.34 0 4.11-2.03 4.11-4.33 0-2.35-1.76-4.26-4.11-4.26-2.29 0-4.32 1.91-4.32 4.26 0 2.3 2.03 4.33 4.32 4.33zm13.67 1.73c-3.29 0-6-2.81-6-6.06 0-3.29 2.71-6.01 6-6.01s6 2.71 6 6.01c0 3.25-2.71 6.06-6 6.06zm0-10.32c-2.34 0-4.16 1.93-4.16 4.26 0 2.3 1.81 4.33 4.16 4.33s4.16-2.03 4.16-4.33c0-2.35-1.81-4.26-4.16-4.26zM77.62 70.31c-3.29 0-6-2.81-6-6.04 0-3.29 2.71-6.01 6-6.01 1.76 0 3.33.81 4.37 2.08v-1.9h1.76v11.63H82v-1.9c-1.07 1.29-2.61 2.14-4.38 2.14zm-.06-1.73c2.29 0 4.32-2.03 4.32-4.33 0-2.35-2.03-4.26-4.32-4.26-2.34 0-4.11 1.91-4.11 4.26 0 2.3 1.76 4.33 4.11 4.33zM117.88 64.25v.83H107.8c.37 1.91 2.03 3.49 4.07 3.49 1.35 0 2.48-.67 3.21-1.61h2.18c-.96 2-3.04 3.34-5.39 3.34-3.29 0-6-2.81-6-6.06 0-3.29 2.71-6.01 6-6.01s6.01 2.73 6.01 6.02zm-6-4.26c-2.05 0-3.69 1.48-4.09 3.39h8.16c-.38-1.91-2.04-3.39-4.07-3.39z"/><path d="M7.63 74.1a4.653 4.653 0 0 1 4.52-3.58c1.41 0 2.68.63 3.54 1.63.75-.52 1.65-.81 2.63-.81 2.56 0 4.64 2.08 4.64 4.64 0 .53-.08 1.03-.25 1.51.56.77.91 1.73.91 2.76 0 2.56-2.08 4.64-4.64 4.64-1.13 0-2.16-.4-2.96-1.07a4.673 4.673 0 0 1-3.79 1.96 4.67 4.67 0 0 1-4.14-2.53c-.31.07-.63.1-.96.1-2.56 0-4.66-2.08-4.66-4.64 0-2.56 2.08-4.64 4.66-4.64.16 0 .33 0 .5.03z"/></svg>

<svg version="1.1" xmlns="http://www.w3.org/2000/svg" viewBox="0 0 128 128" width="128px" height="128px" fill="#3BBCED">
	<path d="M12.07,51.78H11.4v3.45h0.67V51.78z M14.93,51.78h-0.67v3.45h0.67V51.78z M18.83,45.21l-0.68-1.18L6.78,50.6
		l0.68,1.18L18.83,45.21z" />
	<path d="M18.77,45.21l0.68-1.18l11.37,6.57l-0.68,1.18L18.77,45.21z" />
	<path d="M32.83,51.8v-1.36H1.67v1.36H32.83z" />
	<path d="M58.84,58.44h-1.76v11.58h1.76v-6.41c0-2.36,1.86-3.63,3.92-3.63v-1.73c-1.6,0-2.98,0.68-3.92,1.76V58.44z
		 M70.18,60.04v-1.6h-2.61v-4.56H65.8v4.56h-1.73v1.6h1.73v9.99h1.76v-9.99L70.18,60.04z" />
	<path d="M88.43,56.1c0.67,0,1.23-0.55,1.23-1.27c0-0.63-0.58-1.21-1.23-1.21c-0.72,0-1.26,0.58-1.26,1.21
		C87.17,55.55,87.72,56.1,88.43,56.1z M87.53,70.02h1.84V58.44h-1.84V70.02z M93.09,70.02h1.76v-6.16c0-2.61,1.45-3.93,3.79-3.88
		c1.93,0,2.98,1.13,2.98,3.43v6.61h1.76v-6.61c0-3.69-1.41-5.16-4.74-5.16c-1.58,0-2.86,0.58-3.79,1.58v-1.4h-1.76V70.02z" />
	<path d="M122.4,58.44h-1.76v11.58h1.76v-6.41c0-2.36,1.86-3.63,3.92-3.63v-1.73c-1.61,0-2.98,0.68-3.92,1.76V58.44z" />
	<path d="M10.97,56.76H7.44v3.54h3.53V56.76z M6.99,56.76H3.47v3.54h3.53V56.76z M6.99,60.71H3.47v3.54h3.53V60.71z
		 M10.97,60.71H7.44v3.54h3.53V60.71z M14.93,60.71H11.4v3.54h3.53V60.71z M14.93,54.86H11.4v3.54h3.53V54.86z" />
	<path d="M20.49,71.07V50.85h1.36v21.2C21.49,71.64,21.03,71.34,20.49,71.07z M18.17,70.72V42.2h1.36v28.69
		C19.15,70.71,18.22,70.72,18.17,70.72z M5.25,73.57c-1.66-1.23-2.76-3.19-2.76-5.42c0-1.18,0.31-2.35,0.9-3.36h11.64
		c0.6,1.02,0.9,2.18,0.9,3.36c0,1.03-0.13,2-0.55,2.86c-0.88-0.85-2.18-1.21-3.49-1.21c-2.33,0-4.32,1.45-4.84,3.61
		c-0.18-0.02-0.3-0.03-0.48-0.03C6.11,73.39,5.68,73.45,5.25,73.57L5.25,73.57z M34.59,58.26c3.29,0,6,2.71,6,6.01
		c0,3.25-2.71,6.06-6,6.06c-1.76,0-3.32-0.83-4.37-2.13v7.1h-1.76V58.44h1.76v1.9C31.28,59.07,32.83,58.26,34.59,58.26L34.59,58.26z
		 M34.64,68.58c2.34,0,4.11-2.03,4.11-4.33c0-2.35-1.76-4.26-4.11-4.26c-2.29,0-4.32,1.91-4.32,4.26
		C30.32,66.55,32.35,68.58,34.64,68.58L34.64,68.58z M48.31,70.31c-3.29,0-6-2.81-6-6.06c0-3.29,2.71-6.01,6-6.01
		c3.29,0,6,2.71,6,6.01C54.31,67.5,51.6,70.31,48.31,70.31z M48.31,59.99c-2.34,0-4.16,1.93-4.16,4.26c0,2.3,1.81,4.33,4.16,4.33
		s4.16-2.03,4.16-4.33C52.47,61.9,50.66,59.99,48.31,59.99z" />
	<path d="M77.62,70.31c-3.29,0-6-2.81-6-6.04c0-3.29,2.71-6.01,6-6.01c1.76,0,3.33,0.81,4.37,2.08v-1.9h1.76v11.63H82
		v-1.9C80.93,69.46,79.39,70.31,77.62,70.31z M77.56,68.58c2.29,0,4.32-2.03,4.32-4.33c0-2.35-2.03-4.26-4.32-4.26
		c-2.34,0-4.11,1.91-4.11,4.26C73.45,66.55,75.21,68.58,77.56,68.58z" />
	<path d="M117.88,64.25v0.83H107.8c0.37,1.91,2.03,3.49,4.07,3.49c1.35,0,2.48-0.67,3.21-1.61h2.18
		c-0.96,2-3.04,3.34-5.39,3.34c-3.29,0-6-2.81-6-6.06c0-3.29,2.71-6.01,6-6.01S117.88,60.96,117.88,64.25z M111.88,59.99
		c-2.05,0-3.69,1.48-4.09,3.39h8.16C115.57,61.47,113.91,59.99,111.88,59.99z" />
	<path d="M7.63,74.1c0.48-2.05,2.33-3.58,4.52-3.58c1.41,0,2.68,0.63,3.54,1.63c0.75-0.52,1.65-0.81,2.63-0.81
		c2.56,0,4.64,2.08,4.64,4.64c0,0.53-0.08,1.03-0.25,1.51c0.56,0.77,0.91,1.73,0.91,2.76c0,2.56-2.08,4.64-4.64,4.64
		c-1.13,0-2.16-0.4-2.96-1.07c-0.85,1.18-2.23,1.96-3.79,1.96c-1.8,0-3.36-1.03-4.14-2.53c-0.31,0.07-0.63,0.1-0.96,0.1
		c-2.56,0-4.66-2.08-4.66-4.64c0-2.56,2.08-4.64,4.66-4.64C7.29,74.07,7.46,74.07,7.63,74.1L7.63,74.1z" />
</svg>
